Numix/16/status/indicator-keyboard-Ff.svg

<?xml version="1.0" encoding="UTF-8" standalone="no"?>
<svg
   xmlns:dc="http://purl.org/dc/elements/1.1/"
   xmlns:cc="http://creativecommons.org/ns#"
   xmlns:rdf="http://www.w3.org/1999/02/22-rdf-syntax-ns#"
   xmlns:svg="http://www.w3.org/2000/svg"
   xmlns="http://www.w3.org/2000/svg"
   xmlns:sodipodi="http://sodipodi.sourceforge.net/DTD/sodipodi-0.dtd"
   xmlns:inkscape="http://www.inkscape.org/namespaces/inkscape"
   viewBox="0 0 16 16"
   id="svg2"
   version="1.1"
   inkscape:version="0.91 r13725"
   sodipodi:docname="indicator-keyboard-Ff.svg">
  <metadata
     id="metadata13">
    <rdf:RDF>
      <cc:Work
         rdf:about="">
        <dc:format>image/svg+xml</dc:format>
        <dc:type
           rdf:resource="http://purl.org/dc/dcmitype/StillImage" />
      </cc:Work>
    </rdf:RDF>
  </metadata>
  <defs
     id="defs11" />
  <sodipodi:namedview
     pagecolor="#ffffff"
     bordercolor="#666666"
     borderopacity="1"
     objecttolerance="10"
     gridtolerance="10"
     guidetolerance="10"
     inkscape:pageopacity="0"
     inkscape:pageshadow="2"
     inkscape:window-width="640"
     inkscape:window-height="480"
     id="namedview9"
     showgrid="false"
     inkscape:zoom="14.75"
     inkscape:cx="8"
     inkscape:cy="8"
     inkscape:window-x="65"
     inkscape:window-y="24"
     inkscape:window-maximized="0"
     inkscape:current-layer="svg2" />
  <path
     style="fill:#ececec;fill-opacity:1"
     d="M 1.5996094 0 C 0.71320937 2.9605947e-16 0 0.71320937 0 1.5996094 L 0 14.400391 C 2.9605947e-16 15.286791 0.71320937 16 1.5996094 16 L 14.400391 16 C 15.286791 16 16 15.286791 16 14.400391 L 16 1.5996094 C 16 0.71320937 15.286791 0 14.400391 0 L 1.5996094 0 z M 10.710938 4.5078125 C 10.962938 4.5078125 11.168219 4.5283125 11.324219 4.5703125 C 11.486219 4.6063125 11.590672 4.6399219 11.638672 4.6699219 L 11.521484 5.1738281 C 11.455484 5.1438281 11.356609 5.1139844 11.224609 5.0839844 C 11.098609 5.0479844 10.936281 5.0292969 10.738281 5.0292969 C 10.324281 5.0292969 10.027656 5.1357031 9.8476562 5.3457031 C 9.6736563 5.5557031 9.5859375 5.8915156 9.5859375 6.3535156 L 9.5859375 6.8398438 L 11.458984 6.8398438 L 11.458984 7.3339844 L 9.5859375 7.3339844 L 9.5859375 11.492188 L 9.0019531 11.492188 L 9.0019531 6.3359375 C 9.0019531 5.7299375 9.1400156 5.2727969 9.4160156 4.9667969 C 9.6980156 4.6607969 10.128937 4.5078125 10.710938 4.5078125 z M 4.3613281 5.2558594 L 7.9160156 5.2558594 L 7.9160156 5.7851562 L 4.9726562 5.7851562 L 4.9726562 7.9824219 L 7.5839844 7.9824219 L 7.5839844 8.5136719 L 4.9726562 8.5136719 L 4.9726562 11.492188 L 4.3613281 11.492188 L 4.3613281 5.2558594 z "
     id="path4" />
</svg>

<svg xmlns="http://www.w3.org/2000/svg" viewBox="0 0 16 16">
 <path d="m 1.6 0 c -0.886 0 -1.6 0.713 -1.6 1.6 l 0 12.801 c 0 0.886 0.713 1.6 1.6 1.6 l 12.801 0 c 0.886 0 1.6 -0.713 1.6 -1.6 l 0 -12.801 c 0 -0.886 -0.713 -1.6 -1.6 -1.6 l -12.801 0 z m 9.111 4.508 c 0.252 0 0.457 0.021 0.613 0.063 c 0.162 0.036 0.266 0.07 0.314 0.1 l -0.117 0.504 c -0.066 -0.03 -0.165 -0.06 -0.297 -0.09 c -0.126 -0.036 -0.288 -0.055 -0.486 -0.055 c -0.414 0 -0.711 0.106 -0.891 0.316 c -0.174 0.21 -0.262 0.546 -0.262 1.01 l 0 0.486 l 1.873 0 l 0 0.494 l -1.873 0 l 0 4.158 l -0.584 0 l 0 -5.156 c 0 -0.606 0.138 -1.063 0.414 -1.369 c 0.282 -0.306 0.713 -0.459 1.295 -0.459 z m -6.35 0.748 l 3.555 0 l 0 0.529 l -2.943 0 l 0 2.197 l 2.611 0 l 0 0.531 l -2.611 0 l 0 2.979 l -0.611 0 l 0 -6.236 z" style="fill:#ececec;fill-opacity:1"/>
</svg>
